X:162
T: MAEDCHEN SIEH DAS VEILCHEN AN
N: F0295
O: Europa, Mitteleuropa, Deutschland
R: Jugend - Lied, Belehrung, Moral
M: 4/4
L: 1/8
K: Ab
 | A3Bc2E2 | B3cd2z2
c3de2GA | c2B2z4
A3Bc2E2 | B3cd2z2
c3=de2f2 | =e3=d_e2z2
fe_dcB2E2 | c4
edcB | A3Bc2B2 | A4z4

